packages/gestalt-icons-android/vr-theme/ic_vr_forward_gestalt.svg

<svg width="24" height="24" viewBox="0 0 24 24" fill="none" xmlns="http://www.w3.org/2000/svg">
<path d="M2 4.9902V19.0098C2 19.8072 2.81399 20.2764 3.40987 19.8225L12.613 12.8127C13.129 12.4197 13.129 11.5803 12.613 11.1873L3.40987 4.17747C2.81398 3.72359 2 4.19282 2 4.9902Z" fill="black"/>
<path d="M14.4099 4.17747C13.814 3.72359 13 4.19282 13 4.9902V19.0098C13 19.8072 13.814 20.2764 14.4099 19.8225L23.613 12.8127C24.129 12.4197 24.129 11.5803 23.613 11.1873L14.4099 4.17747Z" fill="black"/>
</svg>

<svg xmlns="http://www.w3.org/2000/svg" width="24" height="24"><path d="M2 4.99v14.02c0 .8.81 1.27 1.41.81l9.2-7c.52-.4.52-1.24 0-1.63l-9.2-7.01c-.6-.46-1.41.01-1.41.81m12.41-.81c-.6-.46-1.41.01-1.41.81v14.02c0 .8.81 1.27 1.41.81l9.2-7c.52-.4.52-1.24 0-1.63z"/></svg>
